!!!OTL: Gottes Rath und Scheiden.
!!!OTL-incipit:ES IST BESTIMMT IN GOTTES RATH
!!!COM: F. Mendelsohn
!!!ARE: Europa, Mitteleuropa, Deutschland
!!!SCT: F0191
!!!TXL: @@DE
!!!YEM: Copyright 1995, estate of Helmut Schaffrath.
**kern	**text	**text	**text
*ICvox	*	*	*
*clefG2	*	*	*
*M4/4	*	*	*
*met(c)	*	*	*
*k[f#c#]	*	*	*
*D:	*	*	*
!LO:TX:a:t=Etwas angehalten.	!	!	!
!LO:TX:a:t=P:only the highest voice encoded:problem	!	!	!
{4a	1._Es	2._So	3._Und
=1	=1	=1	=1
4.g	iſt	dir	hat
8f#	beſtimmt	geſchenkt	dir
4f#	.	.	Gott
4dd/	in	ein	ein
=2	=2	=2	=2
4.cc#/	Gottes	Knösplein	Lieb
8b/	.	.	beſcheert,
4b/}	Rath,	was,	.
{4b/	daß	ſo	und
=3	=3	=3	=3
4e	man	thu'	hältſt
4f#	vom	es	du
4g	Liebſten	in	ſie
4b/	.	ein	recht
=4	=4	=4	=4
4.a	was	Waſ-	in-
8g	man	-ſer-	-nig
4f#}	hat,	-glas,	werth,
{4a	muß	doch	die
=5	=5	=5	=5
(4.e	ſchei-	wiſ-	Dei-
8g)	.	.	.
4f#}	-den.	-ſe:	-ne,
{4a	1_Wie	2._blüht	3._es
=6	=6	=6	=6
!LO:TX:a:t=P:accompaniment ommitted:problem	!	!	!
4dd/	wohl	mor-	wird
4cc#/	doch	-gen	wol
4.b/	nichts	dir	we-
8a/	im	ein	-nig
=7	=7	=7	=7
4.a	Lauf	Röslein	Ʒeit
8g#	der	.	um
4g#}	Welt	auf,	ſein,
{4d	dem	es	da
=8	=8	=8	=8
4cc#/	Her-	welkt	läßt
4b/	-ʒen,	wol	ſie
4.a/	ach,	ſchon	dich
8g	ſo	die	ſo
=9	=9	=9	=9
4.g#	ſau-	Nacht	gar
8f#	-er	da-	al-
4f#}	fällt,	-rauf,	-lein,
{4a	als	das	dann
=10	=10	=10	=10
(4.e	1._Schei-	2._wiſ-	3._wei-
8g)	.	.	.
4f#	-den!	-ſe!	-ne!
!LO:TX:a:t=P:accompaniment ommitted:problem	!	!	!
4a	ja	ja	ja
=11	=11	=11	=11
(2.e	Schei-	wiſ-	wei-
4g)	.	.	.
=12	=12	=12	=12
2.f#;}	-den!	-ſe!	-ne!
==	==	==	==
!!!AGN: Abschieds - Lied
!!!ONB: ESAC (Essen Associative Code) Database: FINK
!!!AMT: simple quadruple
!!!AIN: vox
!!!EED: Helmut Schaffrath
!!!EEV: 1.0
!!!GTL:Volkslieder
!!Text: E. F. v. Feuchtersleben
!!@@COMMENT:"Anmerkung: Das Gedicht iſt von Ernſt Freiherrn v. Feuchtersleben, eine Nachbildung altdeutſcher Dichtart.
!!Es ſteht S. 5 der Gedichte des Genannten. Ein Beweis mehr, wie viele für Voltslieder gehaltene, nicht aus dem 
!!Volke im untergeordneten Sinne des Wortes, ſondern von namhaften Dichtern hervorgegangen ſind.
!!*) Mit beſonderer Erlaubniß der Herren Verleger, aus s Liedern Op. 47, bei Breitkopf und Härtel."
!!@@END:
!!!source: Musikalischer Hausschatz der Deutschen. Eine Sammlung von über 1000 Liedern und Gesängen mit Singstimmen und Klavierbegleitung. Leipzig, Litterarisches Verlags-Haus.
!!!page: 113
!!!URL-scan: https://www.digitale-sammlungen.de/en/view/bsb11144622?page=120,121
!!!ENC: Anna Maria Matuszewska
!!!EEV: 2024/07/26
*-	*-	*-	*-